images/lullabot-lockup-logo.svg

<svg fill="none" height="111" viewBox="0 0 349 111" width="349" xmlns="http://www.w3.org/2000/svg"><g clip-rule="evenodd" fill-rule="evenodd"><path d="m79.833 46.9366h2.3379c1.5522 0 2.8112 1.2576 2.8131 2.8081v10.729c0 1.5505-1.259 2.8081-2.8112 2.8081h-2.3379v5.5894c0 3.0933-2.5103 5.5989-5.6051 5.5989h-31.7856c-3.0967 0-5.6051-2.5075-5.6051-5.5989v-5.5894h-2.3379c-1.5522 0-2.8112-1.2576-2.8112-2.8081v-10.729c0-1.5505 1.259-2.8081 2.8112-2.8081h2.3379v-5.3309c0-3.0934 2.5103-5.599 5.6051-5.599h13.3413v-6.1637c-1.7918-.9245-3.0182-2.787-3.0182-4.9404 0-3.0723 2.4931-5.5626 5.5687-5.5626 3.0757 0 5.5688 2.4903 5.5688 5.5626 0 2.1515-1.2264 4.0159-3.0182 4.9404v6.1637h13.3413c3.0967 0 5.6051 2.5076 5.6051 5.599zm-25.7607 1.5256c0 1.7539-1.4233 3.1756-3.1791 3.1756s-3.1792-1.4217-3.1792-3.1756c0-1.7538 1.4234-3.1756 3.1792-3.1756s3.1791 1.4218 3.1791 3.1756zm15.1943 0c0 1.7539-1.4233 3.1756-3.1791 3.1756s-3.1792-1.4217-3.1792-3.1756c0-1.7538 1.4234-3.1756 3.1792-3.1756s3.1791 1.4218 3.1791 3.1756zm-10.7907 17.0266c-5.494 0-10.6622-2.1324-14.5523-6.0047-.824-.8193-.8259-2.1516-.0057-2.9728.8201-.8231 2.1539-.825 2.976-.0057 3.0967 3.0818 7.211 4.7778 11.582 4.7778 4.3845 0 8.5045-1.7056 11.6051-4.8027.8221-.8212 2.1539-.8212 2.976 0s.8221 2.1515 0 2.9727c-3.8939 3.8935-9.0717 6.0354-14.5811 6.0354z" fill="#f80000"/><path d="m166.08 35.6357v37.6233c0 .5146.41.9343.919.9293h7.229c.509 0 .919-.4147.919-.9293v-38.5277c0-.5596-.484-.9943-1.032-.9243l-7.23.9043c-.459.06-.805.4547-.805.9244zm148.13 4.7316c0 1.369-1.062 2.4482-2.444 2.4482-1.368 0-2.465-1.0742-2.465-2.4482 0-1.3391 1.092-2.4183 2.465-2.4183 1.382 0 2.444 1.0742 2.444 2.4183zm-4.296 0c0 1.0742.785 1.9286 1.866 1.9286 1.047 0 1.823-.8544 1.823-1.9136 0-1.0743-.771-1.9437-1.837-1.9437-1.067 0-1.852.8694-1.852 1.9287zm1.471 1.2691h-.553v-2.4183c.218-.045.524-.075.919-.075.454 0 .657.075.829.1749.134.105.232.2948.232.5296 0 .2649-.202.4697-.493.5597v.0299c.232.09.365.2648.434.5896.074.3698.119.5146.173.6046h-.597c-.064-.0771-.106-.2496-.16-.4734-.009-.0374-.018-.0762-.028-.1162-.045-.2648-.188-.3847-.494-.3847h-.262zm.015-1.374h.262c.306 0 .553-.105.553-.3548 0-.2198-.158-.3697-.509-.3697-.143 0-.247.015-.306.0299zm-170.514 6.2255c.508 0 .918.4147.918.9294v15.454c0 3.3376 1.412 4.4668 3.768 4.4668 1.748 0 3.21-.6745 4.301-1.5489.222-.1798.351-.4496.351-.7344v-17.6375c0-.5147.41-.9294.918-.9294h7.23c.508 0 .918.4147.918.9294v25.5319c0 .4696-.346.8643-.805.9243l-7.229.9044c-.548.0699-1.032-.3648-1.032-.9244v-.9143c0-.7795-.894-1.2192-1.497-.7245-2 1.6488-4.572 2.8679-7.397 2.8679-5.358 0-8.597-3.6324-8.597-9.5332v-18.1321c0-.5147.41-.9294.918-.9294zm41.041 26.7711v-37.6233c0-.4697.345-.8644.805-.9244l7.229-.9043c.548-.07 1.032.3647 1.032.9243v38.5277c0 .5146-.41.9293-.918.9293h-7.23c-.508.005-.918-.4147-.918-.9293zm22.735 1.8237c3.768 0 5.95-1.9086 7.891-4.232h.183c1.205 2.9679 4.039 4.5718 9.703 3.9272.247-.03.445-.2298.479-.4796l.751-5.5611c.039-.3048-.173-.5846-.474-.6245-1.408-.1749-1.689-.4997-1.689-2.2035l.059-8.2192c.119-7.7495-3.002-12.0964-12.483-12.0964-4.948 0-9.304 1.5739-12.198 3.0628-.237.125-.355.3948-.281.6496l1.585 5.656c.094.3297.464.4946.77.3447 2.993-1.4589 6.06-2.5082 8.711-2.5082 3.358 0 4.83 1.3141 4.83 4.232 0 .2998-.237.5446-.534.5546-11.886.4647-15.663 4.6467-15.663 9.8131 0 4.2869 3.649 7.6845 8.36 7.6845zm7.21-13.1457c.331-.0449.622.2149.622.5496v4.4619c0 .1399-.05.2798-.148.3797-.943.9893-2.356 1.6838-4.089 1.6838-2.005 0-3.417-1.1891-3.417-2.9779 0-2.3533 1.906-3.4375 7.032-4.0971zm31.016 13.0858c-1.753 0-4.217-.4397-5.975-1.0593-.138-.05-.281-.0649-.43-.045l-7.274 1.0143c-.553.075-1.046-.3597-1.046-.9243v-38.3728c0-.4697.345-.8644.805-.9244l7.229-.9043c.548-.07 1.032.3647 1.032.9243v12.5061c0 .7845.894 1.2142 1.496.7245 1.585-1.2841 3.645-2.3633 6.217-2.3633 6.771 0 11.66 5.601 11.66 14.4198.004 9.1685-6.297 15.0044-13.714 15.0044zm-1.061-22.0994c-1.823 0-3.107.6396-4.257 1.6089-.213.1798-.336.4397-.336.7195v10.6924c0 .9093.178 1.2241.474 1.384.993.5396 2.242.8444 3.704.8444 3.886 0 6.123-3.0978 6.123-7.6845.005-4.7667-2-7.5647-5.708-7.5647zm18.562 7.5047c0 9.4133 6.301 14.6546 14.543 14.6546 8.187 0 14.839-5.5361 14.839-14.8345 0-9.2934-6.242-14.6546-14.484-14.6546-8.301 0-14.898 5.4212-14.898 14.8345zm9.012-.06c0-4.7666 1.941-7.8044 5.649-7.8044 3.709 0 5.709 3.0978 5.714 7.7445 0 4.7666-1.941 7.7445-5.649 7.7445-3.714 0-5.714-2.9779-5.714-7.6846zm36.686 14.7146c-6.775 0-10.42-2.7981-10.069-10.0679l.38-9.7281c.02-.4647-.306-.8744-.765-.9543l-2.539-.4397c-.454-.08-.78-.4797-.765-.9443l.133-4.3769c.01-.3898.267-.7345.632-.8544l2.889-.9594c.371-.1249.627-.4696.632-.8643l.089-4.7417c.01-.5096.42-.9143.919-.9143h6.943c.513 0 .923.4197.918.9393l-.039 4.7366c-.005.5197.41.9394.918.9394h4.958c.519 0 .933.4297.919.9543l-.134 5.3462c-.014.5047-.419.9094-.918.9094h-5.511c-.499 0-.904.3997-.919.9043l-.266 9.0486c-.119 2.5632 1.358 3.6324 3.595 3.6324.819 0 1.698-.1599 2.597-.4097.529-.1449 1.072.2099 1.151.7595l.78 5.2812c.069.4647-.217.9094-.662 1.0343-1.792.4997-3.447.7695-5.866.7695zm-177.863-7.9644c.193 2.2584.716 4.1721 1.882 5.5211.523.6096.113 1.5539-.682 1.5489h-2.192-2.687-20.266c-.509 0-.918-.4147-.918-.9293v-35.3749c0-.5147.409-.9294.918-.9294h7.521c.509 0 .918.4147.918.9294v27.4505c0 .5146.41.9293.919.9293h10.898.005 2.766c.018 0 .032.0086.047.0173.013.0076.026.0154.042.0177.118.02.222.06.321.1249.266.1449.479.3698.508.6945z" fill="#223340"/></g></svg>

<svg width="349" height="111" viewBox="0 0 349 111" fill="none" xmlns="http://www.w3.org/2000/svg">
<path fill-rule="evenodd" clip-rule="evenodd" d="M79.833 46.9366H82.1709C83.7231 46.9366 84.9821 48.1942 84.984 49.7447V60.4737C84.984 62.0242 83.725 63.2818 82.1728 63.2818H79.8349V68.8712C79.8349 71.9645 77.3246 74.4701 74.2298 74.4701H42.4442C39.3475 74.4701 36.8391 71.9626 36.8391 68.8712V63.2818H34.5012C32.949 63.2818 31.69 62.0242 31.69 60.4737V49.7447C31.69 48.1942 32.949 46.9366 34.5012 46.9366H36.8391V41.6057C36.8391 38.5123 39.3494 36.0067 42.4442 36.0067H55.7855V29.843C53.9937 28.9185 52.7673 27.056 52.7673 24.9026C52.7673 21.8303 55.2604 19.34 58.336 19.34C61.4117 19.34 63.9048 21.8303 63.9048 24.9026C63.9048 27.0541 62.6784 28.9185 60.8866 29.843V36.0067H74.2279C77.3246 36.0067 79.833 38.5143 79.833 41.6057V46.9366ZM54.0723 48.4622C54.0723 50.2161 52.649 51.6378 50.8932 51.6378C49.1374 51.6378 47.714 50.2161 47.714 48.4622C47.714 46.7084 49.1374 45.2866 50.8932 45.2866C52.649 45.2866 54.0723 46.7084 54.0723 48.4622ZM69.2666 48.4622C69.2666 50.2161 67.8433 51.6378 66.0875 51.6378C64.3317 51.6378 62.9083 50.2161 62.9083 48.4622C62.9083 46.7084 64.3317 45.2866 66.0875 45.2866C67.8433 45.2866 69.2666 46.7084 69.2666 48.4622ZM58.4759 65.4888C52.9819 65.4888 47.8137 63.3564 43.9236 59.4841C43.0996 58.6648 43.0977 57.3325 43.9179 56.5113C44.738 55.6882 46.0718 55.6863 46.8939 56.5056C49.9906 59.5874 54.1049 61.2834 58.4759 61.2834C62.8604 61.2834 66.9804 59.5778 70.081 56.4807C70.9031 55.6595 72.2349 55.6595 73.057 56.4807C73.8791 57.3019 73.8791 58.6322 73.057 59.4534C69.1631 63.3469 63.9853 65.4888 58.4759 65.4888Z" fill="#F80000"/>
<path fill-rule="evenodd" clip-rule="evenodd" d="M166.08 35.6357V73.259C166.08 73.7736 166.49 74.1933 166.999 74.1883H174.228C174.737 74.1883 175.147 73.7736 175.147 73.259V34.7313C175.147 34.1717 174.663 33.737 174.115 33.807L166.885 34.7113C166.426 34.7713 166.08 35.166 166.08 35.6357ZM314.21 40.3673C314.21 41.7363 313.148 42.8155 311.766 42.8155C310.398 42.8155 309.301 41.7413 309.301 40.3673C309.301 39.0282 310.393 37.949 311.766 37.949C313.148 37.949 314.21 39.0232 314.21 40.3673ZM309.914 40.3673C309.914 41.4415 310.699 42.2959 311.78 42.2959C312.827 42.2959 313.603 41.4415 313.603 40.3823C313.603 39.308 312.832 38.4386 311.766 38.4386C310.699 38.4386 309.914 39.308 309.914 40.3673ZM311.385 41.6364H310.832V39.2181C311.05 39.1731 311.356 39.1431 311.751 39.1431C312.205 39.1431 312.408 39.2181 312.58 39.318C312.714 39.423 312.812 39.6128 312.812 39.8476C312.812 40.1125 312.61 40.3173 312.319 40.4073V40.4372C312.551 40.5272 312.684 40.702 312.753 41.0268C312.827 41.3966 312.872 41.5414 312.926 41.6314H312.329C312.265 41.5543 312.223 41.3818 312.169 41.158C312.16 41.1206 312.151 41.0818 312.141 41.0418C312.096 40.777 311.953 40.6571 311.647 40.6571H311.385V41.6364ZM311.4 40.2624H311.662C311.968 40.2624 312.215 40.1574 312.215 39.9076C312.215 39.6878 312.057 39.5379 311.706 39.5379C311.563 39.5379 311.459 39.5529 311.4 39.5678V40.2624ZM140.886 46.4879C141.394 46.4879 141.804 46.9026 141.804 47.4173V62.8713C141.804 66.2089 143.216 67.3381 145.572 67.3381C147.32 67.3381 148.782 66.6636 149.873 65.7892C150.095 65.6094 150.224 65.3396 150.224 65.0548V47.4173C150.224 46.9026 150.634 46.4879 151.142 46.4879H158.372C158.88 46.4879 159.29 46.9026 159.29 47.4173V72.9492C159.29 73.4188 158.944 73.8135 158.485 73.8735L151.256 74.7779C150.708 74.8478 150.224 74.4131 150.224 73.8535V72.9392C150.224 72.1597 149.33 71.72 148.727 72.2147C146.727 73.8635 144.155 75.0826 141.33 75.0826C135.972 75.0826 132.733 71.4502 132.733 65.5494V47.4173C132.733 46.9026 133.143 46.4879 133.651 46.4879H140.886ZM181.927 73.259V35.6357C181.927 35.166 182.272 34.7713 182.732 34.7113L189.961 33.807C190.509 33.737 190.993 34.1717 190.993 34.7313V73.259C190.993 73.7736 190.583 74.1883 190.075 74.1883H182.845C182.337 74.1933 181.927 73.7736 181.927 73.259ZM204.662 75.0827C208.43 75.0827 210.612 73.1741 212.553 70.8507H212.736C213.941 73.8186 216.775 75.4225 222.439 74.7779C222.686 74.7479 222.884 74.5481 222.918 74.2983L223.669 68.7372C223.708 68.4324 223.496 68.1526 223.195 68.1127C221.787 67.9378 221.506 67.613 221.506 65.9092L221.565 57.69C221.684 49.9405 218.563 45.5936 209.082 45.5936C204.134 45.5936 199.778 47.1675 196.884 48.6564C196.647 48.7814 196.529 49.0512 196.603 49.306L198.188 54.962C198.282 55.2917 198.652 55.4566 198.958 55.3067C201.951 53.8478 205.018 52.7985 207.669 52.7985C211.027 52.7985 212.499 54.1126 212.499 57.0305C212.499 57.3303 212.262 57.5751 211.965 57.5851C200.079 58.0498 196.302 62.2318 196.302 67.3982C196.302 71.6851 199.951 75.0827 204.662 75.0827ZM211.872 61.937C212.203 61.8921 212.494 62.1519 212.494 62.4866V66.9485C212.494 67.0884 212.444 67.2283 212.346 67.3282C211.403 68.3175 209.99 69.012 208.257 69.012C206.252 69.012 204.84 67.8229 204.84 66.0341C204.84 63.6808 206.746 62.5966 211.872 61.937ZM242.888 75.0228C241.135 75.0228 238.671 74.5831 236.913 73.9635C236.775 73.9135 236.632 73.8986 236.483 73.9185L229.209 74.9328C228.656 75.0078 228.163 74.5731 228.163 74.0085V35.6357C228.163 35.166 228.508 34.7713 228.968 34.7113L236.197 33.807C236.745 33.737 237.229 34.1717 237.229 34.7313V47.2374C237.229 48.0219 238.123 48.4516 238.725 47.9619C240.31 46.6778 242.37 45.5986 244.942 45.5986C251.713 45.5986 256.602 51.1996 256.602 60.0184C256.606 69.1869 250.305 75.0228 242.888 75.0228ZM241.827 52.9234C240.004 52.9234 238.72 53.563 237.57 54.5323C237.357 54.7121 237.234 54.972 237.234 55.2518V65.9442C237.234 66.8535 237.412 67.1683 237.708 67.3282C238.701 67.8678 239.95 68.1726 241.412 68.1726C245.298 68.1726 247.535 65.0748 247.535 60.4881C247.54 55.7214 245.535 52.9234 241.827 52.9234ZM260.389 60.4281C260.389 69.8414 266.69 75.0827 274.932 75.0827C283.119 75.0827 289.771 69.5466 289.771 60.2482C289.771 50.9548 283.529 45.5936 275.287 45.5936C266.986 45.5936 260.389 51.0148 260.389 60.4281ZM269.401 60.3681C269.401 55.6015 271.342 52.5637 275.05 52.5637C278.759 52.5637 280.759 55.6615 280.764 60.3082C280.764 65.0748 278.823 68.0527 275.115 68.0527C271.401 68.0527 269.401 65.0748 269.401 60.3681ZM306.087 75.0827C299.312 75.0827 295.667 72.2846 296.018 65.0148L296.398 55.2867C296.418 54.822 296.092 54.4123 295.633 54.3324L293.094 53.8927C292.64 53.8127 292.314 53.413 292.329 52.9484L292.462 48.5715C292.472 48.1817 292.729 47.837 293.094 47.7171L295.983 46.7577C296.354 46.6328 296.61 46.2881 296.615 45.8934L296.704 41.1517C296.714 40.6421 297.124 40.2374 297.623 40.2374H304.566C305.079 40.2374 305.489 40.6571 305.484 41.1767L305.445 45.9133C305.44 46.433 305.855 46.8527 306.363 46.8527H311.321C311.84 46.8527 312.254 47.2824 312.24 47.807L312.106 53.1532C312.092 53.6579 311.687 54.0626 311.188 54.0626H305.677C305.178 54.0626 304.773 54.4623 304.758 54.9669L304.492 64.0155C304.373 66.5787 305.85 67.6479 308.087 67.6479C308.906 67.6479 309.785 67.488 310.684 67.2382C311.213 67.0933 311.756 67.4481 311.835 67.9977L312.615 73.2789C312.684 73.7436 312.398 74.1883 311.953 74.3132C310.161 74.8129 308.506 75.0827 306.087 75.0827ZM128.224 67.1183C128.417 69.3767 128.94 71.2904 130.106 72.6394C130.629 73.249 130.219 74.1933 129.424 74.1883H127.232H124.545H104.279C103.77 74.1883 103.361 73.7736 103.361 73.259V37.8841C103.361 37.3694 103.77 36.9547 104.279 36.9547H111.8C112.309 36.9547 112.718 37.3694 112.718 37.8841V65.3346C112.718 65.8492 113.128 66.2639 113.637 66.2639H124.535H124.54H127.306C127.324 66.2639 127.338 66.2725 127.353 66.2812C127.366 66.2888 127.379 66.2966 127.395 66.2989C127.513 66.3189 127.617 66.3589 127.716 66.4238C127.982 66.5687 128.195 66.7936 128.224 67.1183Z" fill="#223340"/>
</svg>
